src/icon/animals/mouse.svg

<svg enable-background="new 0 0 24 24" viewBox="0 0 24 24" xmlns="http://www.w3.org/2000/svg"><path d="m22 15v-2h-3.2c.1-.7.2-1.4.2-2 0-.4 0-.8-.1-1.1 1.8-.4 3.1-2 3.1-3.9 0-2.2-1.8-4-4-4-1.6 0-3.1 1-3.7 2.4-.7-.2-1.5-.4-2.3-.4s-1.6.1-2.3.4c-.7-1.4-2.1-2.4-3.7-2.4-2.2 0-4 1.8-4 4 0 1.9 1.3 3.5 3.1 3.9-.1.4-.1.7-.1 1.1 0 .6.1 1.3.2 2h-3.2v2h3.8c.1.4.3.8.5 1.3l-3.7 1.9.9 1.8 3.7-1.8c1.3 2.2 3 4 4.9 4s3.6-1.7 4.9-4l3.7 1.8.9-1.8-3.7-1.9c.2-.4.3-.8.5-1.3zm-6-5c.6 0 1 .4 1 1s-.4 1-1 1-1-.4-1-1c0-.5.4-1 1-1zm1.5-6c1.4 0 2.5 1.1 2.5 2.5 0 1-.6 1.8-1.4 2.2-.5-1.6-1.6-2.9-3.1-3.7.5-.6 1.2-1 2-1zm-9.5 6c.6 0 1 .4 1 1s-.4 1-1 1-1-.4-1-1c0-.5.4-1 1-1zm-4-3.5c0-1.4 1.1-2.5 2.5-2.5.8 0 1.5.4 2 1-1.5.8-2.6 2.1-3.1 3.7-.8-.4-1.4-1.2-1.4-2.2zm8 13.5c-1.1 0-2-.7-2-1.5s.9-1.5 2-1.5 2 .7 2 1.5-.9 1.5-2 1.5z"/></svg>

<?xml version="1.0" encoding="utf-8"?>
<!-- Generator: Adobe Illustrator 18.0.0, SVG Export Plug-In . SVG Version: 6.00 Build 0)  -->
<!DOCTYPE svg PUBLIC "-//W3C//DTD SVG 1.1//EN" "http://www.w3.org/Graphics/SVG/1.1/DTD/svg11.dtd">
<svg version="1.1" id="Layer_1" xmlns="http://www.w3.org/2000/svg" xmlns:xlink="http://www.w3.org/1999/xlink" x="0px" y="0px"
	 viewBox="0 0 24 24" enable-background="new 0 0 24 24" xml:space="preserve">
<path d="M22,15v-2h-3.2c0.1-0.7,0.2-1.4,0.2-2c0-0.4,0-0.8-0.1-1.1C20.7,9.5,22,7.9,22,6c0-2.2-1.8-4-4-4c-1.6,0-3.1,1-3.7,2.4
	C13.6,4.2,12.8,4,12,4c-0.8,0-1.6,0.1-2.3,0.4C9,3,7.6,2,6,2C3.8,2,2,3.8,2,6c0,1.9,1.3,3.5,3.1,3.9C5,10.3,5,10.6,5,11
	c0,0.6,0.1,1.3,0.2,2H2v2h3.8c0.1,0.4,0.3,0.8,0.5,1.3l-3.7,1.9l0.9,1.8l3.7-1.8c1.3,2.2,3,4,4.9,4c1.9,0,3.6-1.7,4.9-4l3.7,1.8
	l0.9-1.8l-3.7-1.9c0.2-0.4,0.3-0.8,0.5-1.3H22z M16,10c0.6,0,1,0.4,1,1c0,0.6-0.4,1-1,1c-0.6,0-1-0.4-1-1C15,10.5,15.4,10,16,10z
	 M17.5,4C18.9,4,20,5.1,20,6.5c0,1-0.6,1.8-1.4,2.2C18.1,7.1,17,5.8,15.5,5C16,4.4,16.7,4,17.5,4z M8,10c0.6,0,1,0.4,1,1
	c0,0.6-0.4,1-1,1c-0.6,0-1-0.4-1-1C7,10.5,7.4,10,8,10z M4,6.5C4,5.1,5.1,4,6.5,4c0.8,0,1.5,0.4,2,1C7,5.8,5.9,7.1,5.4,8.7
	C4.6,8.3,4,7.5,4,6.5z M12,20c-1.1,0-2-0.7-2-1.5c0-0.8,0.9-1.5,2-1.5c1.1,0,2,0.7,2,1.5C14,19.3,13.1,20,12,20z"/>
</svg>
